dist/assets/img/ocp-logo-white.svg

<svg width="175" height="61" viewBox="0 0 175 61" fill="none" xmlns="http://www.w3.org/2000/svg">
<path d="M33.3283 8.96065C33.3283 14.239 29.3787 17.7132 24.3929 17.7132C19.4071 17.7132 15.4818 14.239 15.4818 8.96065C15.4818 3.68228 19.4558 0.208069 24.4172 0.208069C29.3787 0.208069 33.3283 3.68228 33.3283 8.96065ZM20.2482 8.96065C20.1141 11.1427 21.7598 13.0078 23.9418 13.1541C24.0881 13.1541 24.2466 13.1541 24.3929 13.1541C26.709 13.1541 28.5863 11.2768 28.5863 8.96065C28.5863 6.64451 26.709 4.76721 24.3929 4.76721C22.2108 4.66969 20.3701 6.35194 20.2726 8.53399C20.2726 8.68027 20.2726 8.81437 20.2726 8.96065H20.2482Z" fill="#C4D017"/>
<path d="M33.3649 30.3181C33.3649 35.5964 29.4152 39.0707 24.4172 39.0707C19.4193 39.0707 15.4818 35.6086 15.4818 30.3181C15.4818 25.0275 19.4436 21.5655 24.4172 21.5655C29.3909 21.5655 33.3649 25.0397 33.3649 30.3181ZM20.2726 30.3181C20.1385 32.5001 21.7842 34.3652 23.9662 34.5115C24.1125 34.5115 24.271 34.5115 24.4172 34.5115C26.7334 34.5115 28.6107 32.6342 28.6107 30.3181C28.6107 28.0019 26.7334 26.1246 24.4172 26.1246C22.2352 26.0149 20.3823 27.685 20.2726 29.867C20.2726 30.0133 20.2726 30.1718 20.2726 30.3181Z" fill="#C4D017"/>
<path d="M48.6757 6.49842C48.6757 9.87511 46.6643 12.4107 41.8735 12.4107H39.8865V17.3477H35.3274V0.573975H41.8735C46.6643 0.573975 48.6757 3.12173 48.6757 6.49842ZM43.9825 6.49842C43.9825 5.24283 43.0682 4.60894 41.7516 4.60894H39.8622V8.38791H41.7516C43.0682 8.38791 43.9825 7.7662 43.9825 6.49842Z" fill="white"/>
<path d="M61.4512 13.1908V17.3599H50.3947V0.586121H61.122V4.75518H54.9538V6.75437H60.3419V10.704H54.9538V13.2274L61.4512 13.1908Z" fill="white"/>
<path d="M79.8339 17.3599H76.2866L68.3751 8.35129H68.3264V17.3599H63.7794V0.586121H67.3268L75.2382 9.59469H75.287V0.586121H79.8461V17.3599H79.8339Z" fill="white"/>
<path d="M0 30.3181C0 24.7593 4.03496 21.5655 9.228 21.5655C11.4344 21.5289 13.6043 22.175 15.4328 23.4184L13.0313 27.3193C11.983 26.5147 10.6908 26.0637 9.36209 26.0637C6.89967 26.0637 4.77857 27.5509 4.77857 30.3303C4.77857 33.1096 6.88748 34.5968 9.36209 34.5968C10.6908 34.5968 11.9708 34.1458 13.0313 33.3412L15.4328 37.2421C13.6043 38.4855 11.4344 39.1316 9.228 39.095C4.03496 39.0828 0 35.889 0 30.3303V30.3181Z" fill="white"/>
<path d="M51.3944 38.7172H47.847L39.9477 29.7087H39.899V38.7172H35.3398V21.9435H38.8872L46.7987 30.9521H46.8474V21.9435H51.4066V38.7172H51.3944Z" fill="white"/>
<path d="M66.0592 26.1001H61.8657V38.717H57.2944V26.1001H53.1132V21.931H66.0592V26.1001Z" fill="white"/>
<path d="M76.6518 38.717L72.3487 32.4634V38.6926H67.7896V21.9189H74.9574C79.3703 21.9189 81.2597 24.5276 81.2597 27.4289C81.3573 29.7328 79.8701 31.8173 77.6636 32.4756L82.3081 38.7048H76.6396L76.6518 38.717ZM72.3487 25.9782V29.5743H74.3357C75.7254 29.5743 76.5665 29.0014 76.5665 27.758C76.5665 26.5146 75.7254 25.9782 74.3357 25.9782H72.3487Z" fill="white"/>
<path d="M95.1451 35.5722H89.4644L88.4404 38.7294H83.3937L89.8789 21.9557H94.7428L101.228 38.7294H96.1812L95.1329 35.5722H95.1451ZM93.9992 31.9761L92.2925 26.7221L90.5615 31.9761H93.987H93.9992Z" fill="white"/>
<path d="M100.911 30.3181C100.911 24.7593 104.946 21.5655 110.139 21.5655C112.345 21.5289 114.515 22.175 116.344 23.4184L113.942 27.3193C112.894 26.5147 111.602 26.0637 110.273 26.0637C107.81 26.0637 105.689 27.5509 105.689 30.3303C105.689 33.1096 107.798 34.5968 110.273 34.5968C111.602 34.5968 112.882 34.1458 113.942 33.3412L116.344 37.2421C114.515 38.4855 112.345 39.1316 110.139 39.095C104.946 39.0828 100.911 35.889 100.911 30.3303V30.3181Z" fill="white"/>
<path d="M130.472 26.1001H126.278V38.717H121.719V26.1001H117.526V21.931H130.472V26.1001Z" fill="white"/>
<path d="M136.738 38.7172H132.179V21.9435H136.738V38.7172Z" fill="white"/>
<path d="M155.693 38.7172H152.158L144.259 29.7087H144.21V38.7172H139.651V21.9435H143.198L151.11 30.9521H151.158V21.9435H155.693V38.7172Z" fill="white"/>
<path d="M174.966 30.5617C174.966 35.4743 172.138 39.0461 166.762 39.0461C161.386 39.0461 157.656 35.4743 157.656 30.2691C157.656 25.0639 161.008 21.5409 166.994 21.5409C169.408 21.4922 171.772 22.248 173.711 23.6986L170.931 27.441C169.798 26.4536 168.359 25.9172 166.86 25.905C164.105 25.905 162.447 27.697 162.447 30.3179C162.447 32.7559 163.934 34.7064 166.982 34.7064C169.139 34.7064 170.163 33.7433 170.358 32.5974H166.214V28.7575H174.869C174.954 29.4036 174.978 30.0985 174.978 30.5495L174.966 30.5617Z" fill="white"/>
<path d="M16.201 49.1764C16.201 52.5531 14.1896 55.0887 9.39881 55.0887H7.39961V60.0257H2.85266V43.252H9.39881C14.1896 43.252 16.201 45.7997 16.201 49.1764ZM11.5077 49.1764C11.5077 47.9208 10.5935 47.2869 9.27691 47.2869H7.38742V51.0659H9.27691C10.6178 51.0659 11.5077 50.4442 11.5077 49.1764Z" fill="white"/>
<path d="M24.3559 48.0427L20.4551 60.0257H15.4083L21.8935 43.252H26.7574L33.2426 60.0257H28.1959L24.3438 48.0427H24.3559Z" fill="white"/>
<path d="M43.2629 60.0378L38.9476 53.8086V60.0378H34.3884V43.2641H41.5563C45.9691 43.2641 47.8586 45.8728 47.8586 48.7741C47.9561 51.078 46.4689 53.1626 44.2625 53.8208L48.9192 60.05H43.2507L43.2629 60.0378ZM38.9476 47.2747V50.8586H40.9468C42.3365 50.8586 43.1776 50.2857 43.1776 49.0423C43.1776 47.7989 42.3365 47.2747 40.9468 47.2747H38.9476Z" fill="white"/>
<path d="M61.7193 47.421H57.5015V60.0379H52.9423V47.421H48.7489V43.252H61.7071V47.421H61.7193Z" fill="white"/>
<path d="M79.4803 60.0378H75.9329L68.0215 51.0293H67.9727V60.0378H63.4136V43.2641H66.9609L74.8724 52.2727H74.9577V43.2641H79.5169L79.4803 60.0378Z" fill="white"/>
<path d="M93.4506 55.8688V60.0378H82.4062V43.2641H93.0971V47.4332H86.9532V49.4324H92.3413V53.382H86.9532V55.9054L93.4628 55.8688H93.4506Z" fill="white"/>
<path d="M104.653 60.0378L100.338 53.8086V60.0378H95.7786V43.2641H102.946C107.359 43.2641 109.249 45.8728 109.249 48.7741C109.346 51.078 107.859 53.1626 105.653 53.8208L110.297 60.05H104.641L104.653 60.0378ZM100.338 47.2747V50.8586H102.325C103.714 50.8586 104.556 50.2857 104.556 49.0423C104.556 47.7989 103.714 47.2747 102.325 47.2747H100.338Z" fill="white"/>
<path d="M123.95 44.3125L121.987 48.3719C120.768 47.5551 119.354 47.0919 117.891 47.031C117.172 47.031 116.868 47.226 116.868 47.6648C116.868 47.9696 117.063 48.2134 117.757 48.5791L121.207 50.3467C122.975 51.261 124.328 52.4556 124.328 55.0887C124.328 58.5385 122.024 60.4158 117.733 60.4158C115.246 60.4158 112.796 59.7576 110.638 58.5263L112.723 54.1622C114.71 55.5763 116.331 56.2224 117.977 56.2224C118.855 56.2224 119.391 56.0273 119.391 55.4788C119.391 55.0765 119.098 54.8449 118.574 54.6011L114.905 52.7482C113.052 51.907 111.882 50.0419 111.93 48.0062C111.93 45.0074 114.015 42.9229 118.233 42.9229C120.232 42.9229 122.195 43.4105 123.962 44.3247L123.95 44.3125Z" fill="white"/>
<path d="M141.224 43.252V60.0257H136.677V53.5039H130.948V60.0257H126.401V43.252H130.948V49.3349H136.677V43.252H141.224Z" fill="white"/>
<path d="M148.696 60.0378H144.137V43.2641H148.696V60.0378Z" fill="white"/>
<path d="M164.97 49.1764C164.97 52.5531 162.959 55.0887 158.168 55.0887H156.181V60.0257H151.622V43.252H158.168C162.959 43.252 164.97 45.7997 164.97 49.1764ZM160.277 49.1764C160.277 47.9208 159.363 47.2869 158.046 47.2869H156.157V51.0659H158.046C159.363 51.0659 160.277 50.4442 160.277 49.1764Z" fill="white"/>
</svg>

<svg width="175" height="61" fill="none" xmlns="http://www.w3.org/2000/svg"><path d="M33.328 8.96c0 5.279-3.95 8.753-8.935 8.753-4.986 0-8.911-3.474-8.911-8.752 0-5.279 3.974-8.753 8.935-8.753 4.962 0 8.911 3.474 8.911 8.753zm-13.08 0a3.954 3.954 0 003.694 4.194h.45a4.193 4.193 0 100-8.387 3.942 3.942 0 00-4.12 3.767v.427h-.024zm13.117 21.358c0 5.278-3.95 8.753-8.948 8.753s-8.935-3.462-8.935-8.753c0-5.29 3.962-8.753 8.935-8.753 4.974 0 8.948 3.475 8.948 8.753zm-13.092 0a3.954 3.954 0 003.693 4.193h.451a4.193 4.193 0 100-8.386 3.944 3.944 0 00-4.144 3.742v.451z" fill="#C4D017"/><path d="M48.676 6.498c0 3.377-2.012 5.913-6.803 5.913h-1.986v4.937h-4.56V.574h6.547c4.79 0 6.802 2.548 6.802 5.924zm-4.694 0c0-1.255-.914-1.89-2.23-1.89h-1.89v3.78h1.89c1.316 0 2.23-.622 2.23-1.89zm17.469 6.692v4.17H50.395V.586h10.727v4.17h-6.168v1.998h5.388v3.95h-5.388v2.523l6.497-.036zm18.383 4.17h-3.547l-7.912-9.01h-.049v9.009H63.78V.586h3.548l7.911 9.009h.049V.586h4.56V17.36h-.013zM0 30.318c0-5.559 4.035-8.753 9.228-8.753 2.206-.036 4.376.61 6.205 1.853L13.03 27.32a6.043 6.043 0 00-3.669-1.255c-2.462 0-4.583 1.487-4.583 4.266 0 2.78 2.108 4.267 4.583 4.267a6.07 6.07 0 003.67-1.256l2.4 3.901a10.723 10.723 0 01-6.204 1.853C4.035 39.083 0 35.889 0 30.33v-.012zm51.394 8.399h-3.547l-7.9-9.008H39.9v9.008h-4.56V21.944h3.548l7.912 9.008h.048v-9.009h4.56v16.774h-.013zM66.06 26.1h-4.194v12.617h-4.572V26.1h-4.18v-4.169h12.945v4.17zm10.592 12.617l-4.303-6.254v6.23h-4.56V21.919h7.168c4.413 0 6.303 2.609 6.303 5.51a5.052 5.052 0 01-3.596 5.047l4.644 6.229H76.64l.012.012zm-4.303-12.739v3.596h1.987c1.39 0 2.23-.573 2.23-1.816s-.84-1.78-2.23-1.78h-1.987zm22.796 9.594h-5.68L88.44 38.73h-5.046l6.485-16.773h4.864l6.485 16.773h-5.047l-1.048-3.157h.012zM94 31.976l-1.706-5.254-1.732 5.254H94zm6.911-1.658c0-5.559 4.035-8.753 9.228-8.753 2.206-.036 4.376.61 6.205 1.853l-2.402 3.901a6.042 6.042 0 00-3.669-1.255c-2.463 0-4.584 1.487-4.584 4.266 0 2.78 2.109 4.267 4.584 4.267a6.068 6.068 0 003.669-1.256l2.402 3.901a10.726 10.726 0 01-6.205 1.853c-5.193-.012-9.228-3.206-9.228-8.765v-.012zm29.561-4.218h-4.194v12.617h-4.559V26.1h-4.193v-4.169h12.946v4.17zm6.266 12.617h-4.559V21.944h4.559v16.773zm18.955 0h-3.535l-7.899-9.008h-.049v9.008h-4.559V21.944h3.547l7.912 9.008h.048v-9.009h4.535v16.774zm19.273-8.155c0 4.912-2.828 8.484-8.204 8.484-5.376 0-9.106-3.572-9.106-8.777 0-5.205 3.352-8.728 9.338-8.728a10.844 10.844 0 016.717 2.158l-2.78 3.742a6.254 6.254 0 00-4.071-1.536c-2.755 0-4.413 1.792-4.413 4.413 0 2.438 1.487 4.388 4.535 4.388 2.157 0 3.181-.963 3.376-2.109h-4.144v-3.84h8.655c.085.647.109 1.341.109 1.792l-.012.013zM16.201 49.176c0 3.377-2.011 5.913-6.802 5.913h-2v4.937H2.854V43.252H9.4c4.79 0 6.802 2.548 6.802 5.924zm-4.693 0c0-1.255-.914-1.89-2.231-1.89h-1.89v3.78h1.89c1.34 0 2.23-.622 2.23-1.89zm12.848-1.133l-3.9 11.983h-5.048l6.486-16.774h4.863l6.486 16.774h-5.047l-3.852-11.983h.012zm18.907 11.995l-4.315-6.23v6.23h-4.56V43.264h7.168c4.413 0 6.303 2.609 6.303 5.51a5.052 5.052 0 01-3.596 5.047l4.656 6.229h-5.668l.012-.012zm-4.315-12.763v3.584h1.999c1.39 0 2.23-.573 2.23-1.817 0-1.243-.84-1.767-2.23-1.767h-2zm22.772.146h-4.218v12.617h-4.56V47.42H48.75v-4.169h12.958v4.169h.012zm17.76 12.617h-3.547l-7.912-9.009h-.048v9.009h-4.56V43.264h3.548l7.911 9.009h.086v-9.009h4.559l-.037 16.774zm13.97-4.169v4.169H82.407V43.264h10.691v4.17h-6.144v1.998h5.388v3.95h-5.388v2.523l6.51-.036h-.012zm11.203 4.169l-4.315-6.23v6.23h-4.56V43.264h7.168c4.413 0 6.303 2.609 6.303 5.51a5.053 5.053 0 01-3.596 5.047l4.644 6.229h-5.656l.012-.012zm-4.315-12.763v3.584h1.987c1.389 0 2.231-.573 2.231-1.817 0-1.243-.842-1.767-2.231-1.767h-1.987zm23.612-2.962l-1.963 4.059a7.944 7.944 0 00-4.096-1.341c-.719 0-1.023.195-1.023.634 0 .305.195.548.889.914l3.45 1.768c1.768.914 3.121 2.109 3.121 4.742 0 3.45-2.304 5.327-6.595 5.327-2.487 0-4.937-.658-7.095-1.89l2.085-4.364c1.987 1.414 3.608 2.06 5.254 2.06.878 0 1.414-.195 1.414-.743 0-.402-.293-.634-.817-.878l-3.669-1.853a5.074 5.074 0 01-2.975-4.742c0-2.999 2.085-5.083 6.303-5.083 1.999 0 3.962.487 5.729 1.402l-.012-.013zm17.274-1.061v16.774h-4.547v-6.522h-5.729v6.522h-4.547V43.252h4.547v6.083h5.729v-6.083h4.547zm7.472 16.786h-4.559V43.264h4.559v16.774zm16.274-10.862c0 3.377-2.011 5.913-6.802 5.913h-1.987v4.937h-4.559V43.252h6.546c4.791 0 6.802 2.548 6.802 5.924zm-4.693 0c0-1.255-.914-1.89-2.231-1.89h-1.889v3.78h1.889c1.317 0 2.231-.622 2.231-1.89z" fill="#fff"/></svg>
